storage/app/icons/phosphoricons/light/tornado-light.svg

<svg xmlns="http://www.w3.org/2000/svg" fill="currentColor" viewBox="0 0 256 256"><path d="M230 40a6 6 0 0 1-6 6H56a6 6 0 0 1 0-12h168a6 6 0 0 1 6 6m-48 32a6 6 0 0 0-6-6H32a6 6 0 0 0 0 12h144a6 6 0 0 0 6-6m-16 32a6 6 0 0 0-6-6H56a6 6 0 0 0 0 12h104a6 6 0 0 0 6-6m16 32a6 6 0 0 0-6-6H88a6 6 0 0 0 0 12h88a6 6 0 0 0 6-6m2 26h-64a6 6 0 0 0 0 12h64a6 6 0 0 0 0-12m-24 32h-32a6 6 0 0 0 0 12h32a6 6 0 0 0 0-12m-32 32h-16a6 6 0 0 0 0 12h16a6 6 0 0 0 0-12"/></svg>

<svg xmlns="http://www.w3.org/2000/svg" viewBox="0 0 256 256" fill="currentColor"><path d="M230,40a6,6,0,0,1-6,6H56a6,6,0,0,1,0-12H224A6,6,0,0,1,230,40ZM182,72a6,6,0,0,0-6-6H32a6,6,0,0,0,0,12H176A6,6,0,0,0,182,72Zm-16,32a6,6,0,0,0-6-6H56a6,6,0,0,0,0,12H160A6,6,0,0,0,166,104Zm16,32a6,6,0,0,0-6-6H88a6,6,0,0,0,0,12h88A6,6,0,0,0,182,136Zm2,26H120a6,6,0,0,0,0,12h64a6,6,0,0,0,0-12Zm-24,32H128a6,6,0,0,0,0,12h32a6,6,0,0,0,0-12Zm-32,32H112a6,6,0,0,0,0,12h16a6,6,0,0,0,0-12Z"/></svg>
